F[ERK1
CUT[STAND ICH AUF HOHEM BERGE]
REG[Europa, Mitteleuropa, Deutschland]
KEY[E0089H 16  G 2/4]
MEL[-5_  3_1_5_3_  3__2_
    2_  3_1_5_3_  2__0_
    34  5_5_5_56  5_3_1__
    4__6__  5_3_1_
    3_  5_3_2_23  1__0_ //] >>
FCT[erzaehlendes Volks - Lied, Sage, Liebe, Leid
    Ballade ?]
